src/assets/imgs/round-information-button.svg

<?xml version="1.0" encoding="iso-8859-1"?>
<!-- Generator: Adobe Illustrator 16.0.0, SVG Export Plug-In . SVG Version: 6.00 Build 0)  -->
<!DOCTYPE svg PUBLIC "-//W3C//DTD SVG 1.1//EN" "http://www.w3.org/Graphics/SVG/1.1/DTD/svg11.dtd">
<svg version="1.1" id="Capa_1" xmlns="http://www.w3.org/2000/svg" xmlns:xlink="http://www.w3.org/1999/xlink" x="0px" y="0px"
	 width="400px" height="400px" viewBox="0 0 400 400" style="enable-background:new 0 0 400 400;" xml:space="preserve">
<g>
	<g>
		<path d="M199.992,0C89.719,0,0,89.72,0,200s89.719,200,199.992,200C310.273,400,400,310.28,400,200S310.273,0,199.992,0z
			 M199.992,373.77C104.18,373.77,26.23,295.816,26.23,200c0-95.817,77.949-173.769,173.762-173.769
			c95.824,0,173.776,77.953,173.776,173.769C373.769,295.816,295.816,373.77,199.992,373.77z"/>
		<path d="M196.293,125.97c9.656,0,17.488-7.832,17.488-17.489c0-9.657-7.832-17.489-17.488-17.489
			c-9.664,0-17.488,7.832-17.488,17.489C178.805,118.138,186.629,125.97,196.293,125.97z"/>
		<path d="M224.09,279.586h-10.969V154.564c0-7.243-5.871-13.116-13.113-13.116h-24.094c-7.242,0-13.113,5.873-13.113,13.116
			s5.871,13.115,13.113,13.115h10.977v111.907h-10.977c-7.242,0-13.113,5.872-13.113,13.115c0,7.242,5.871,13.115,13.113,13.115
			h48.176c7.246,0,13.117-5.873,13.117-13.115C237.207,285.458,231.336,279.586,224.09,279.586z"/>
	</g>
</g>
<g>
</g>
<g>
</g>
<g>
</g>
<g>
</g>
<g>
</g>
<g>
</g>
<g>
</g>
<g>
</g>
<g>
</g>
<g>
</g>
<g>
</g>
<g>
</g>
<g>
</g>
<g>
</g>
<g>
</g>
</svg>

<?xml version="1.0" encoding="UTF-8"?>
<svg width="400px" height="400px" viewBox="0 0 400 400" version="1.1" xmlns="http://www.w3.org/2000/svg" xmlns:xlink="http://www.w3.org/1999/xlink">
    <!-- Generator: Sketch 60 (88103) - https://sketch.com -->
    <title>round-information-button</title>
    <desc>Created with Sketch.</desc>
    <g id="Page-1" stroke="none" stroke-width="1" fill="none" fill-rule="evenodd">
        <g id="round-information-button" fill="#FFFFFF" fill-rule="nonzero">
            <path d="M199.992,0 C89.719,0 0,89.72 0,200 C0,310.28 89.719,400 199.992,400 C310.273,400 400,310.28 400,200 C400,89.72 310.273,0 199.992,0 Z M199.992,373.77 C104.18,373.77 26.23,295.816 26.23,200 C26.23,104.183 104.179,26.231 199.992,26.231 C295.816,26.231 373.768,104.184 373.768,200 C373.768,295.816 295.816,373.77 199.992,373.77 Z" id="Shape"></path>
            <path d="M196.293,125.97 C205.949,125.97 213.781,118.138 213.781,108.481 C213.781,98.824 205.949,90.992 196.293,90.992 C186.629,90.992 178.805,98.824 178.805,108.481 C178.805,118.138 186.629,125.97 196.293,125.97 Z" id="Path"></path>
            <path d="M224.09,279.586 L213.121,279.586 L213.121,154.564 C213.121,147.321 207.25,141.448 200.008,141.448 L175.914,141.448 C168.672,141.448 162.801,147.321 162.801,154.564 C162.801,161.807 168.672,167.679 175.914,167.679 L186.891,167.679 L186.891,279.586 L175.914,279.586 C168.672,279.586 162.801,285.458 162.801,292.701 C162.801,299.943 168.672,305.816 175.914,305.816 L224.09,305.816 C231.336,305.816 237.207,299.943 237.207,292.701 C237.207,285.458 231.336,279.586 224.09,279.586 Z" id="Path"></path>
        </g>
    </g>
</svg>
